X:1
T:O’er Land and Sea
T:Ira David Sankey
T:O’er Land and Sea
T:Public Domain
T:Public Domain
C:Ira David Sankey
Z:Public Domain
%%score ( 1 2 ) ( 3 4 )
L:1/8
M:4/4
K:Eb
V:1 treble 
V:2 treble 
V:3 bass 
V:4 bass 
V:1
 [EB]2 [EG]>[EA] [EB]2 [Ec]2 | [EB]6 [EB]2 | [Ec]2 [Ee]2 [Ed]2 [Ec]2 | [EB]6 [Ge]2 | [Ge]4 [E=A]4 | %5
w: 1.~On, like the true and|brave; In|Him, the strong to|save, Our|boast shall|
w: 2.~Firm as the hills a-|bove Nor|time or change can|move, His|Word shall|
w: 3.~Soon shall He come to|reign, And|from the ty- rant’s|chain The|world set|
 [DB]6 [DB]2 | [EB]2 (G>A) [EB]2 [Ec]2 | [EB]6 [EB]2 | [Ec]2 [Ee]2 [Ed]2 [Ec]2 | [EB]6 [Ge]2 | %10
w: be; The|world for * Christ we|Our high|ex- alt- ed King,|Whose praise|
w: be; Where|sin and * death a-|His truth|shall yet re- sound,|And all|
w: free; On|realms of * deep- est|The beams|of Gos- pel light|Shall rise|
 [Ge]2 [EG]2 [EA]2 [EB]2 | [Ec]6 [Ee]2 | [EG]4 [DF]4 | E8 |] %14
w: from all shall ring|O’er land|and sea.||
w: shall hear the sound|O’er land|and sea.||
w: in splen- dor bright|O’er land|and sea.||
V:2
 x8 | x8 | x8 | x8 | x8 | x8 | x2 E2 x4 | x8 | x8 | x8 | x8 | x8 | x8 | E8 |] %14
w: ||||||sing,||||||||
w: ||||||bound,||||||||
w: ||||||night,||||||||
V:3
 [E,G,]2 [E,B,]>[E,F,] [E,G,]2 [A,,A,]2 | [E,G,]6 [E,G,]2 | [A,,A,]2 [A,,C]2 [A,,B,]2 [C,A,]2 | %3
 [E,G,]6 [E,B,]2 | [C,C]4 [F,C]4 | [B,,B,]6 [B,,A,]2 | [E,G,]2 (E,>F,) [G,B,]2 A,2 | %7
 [E,G,]6 [E,G,]2 | [A,,A,]2 [A,,C]2 [A,,B,]2 [C,A,]2 | [E,G,]6 [E,B,]2 | %10
 [E,B,]2 [_D,B,]2 [C,A,]2 [E,G,]2 | A,6 [=A,C]2 | B,4 [B,,A,]4 | [E,G,]8 |] %14
V:4
 x8 | x8 | x8 | x8 | x8 | x8 | x2 B,2 x/ A,2 x3/2 | x8 | x8 | x8 | x8 | =A,6 x2 | B,4 x4 | x8 |] %14

